Newaita-dark/.places-retrowave/16/folder-games.svg

<?xml version="1.0" encoding="UTF-8"?>
<svg xmlns="http://www.w3.org/2000/svg" xmlns:xlink="http://www.w3.org/1999/xlink" width="16pt" height="16pt" viewBox="0 0 16 16" version="1.1">
<defs>
<linearGradient id="linear0" gradientUnits="userSpaceOnUse" x1="254" y1="233.5" x2="254" y2="254.666672" gradientTransform="matrix(0.031253,0,0,0.031253,-0.00000190753,6.719393)">
<stop offset="0" style="stop-color:rgb(0%,0%,0%);stop-opacity:0.27451;"/>
<stop offset="1" style="stop-color:rgb(0%,0%,0%);stop-opacity:0;"/>
</linearGradient>
<radialGradient id="radial0" gradientUnits="userSpaceOnUse" cx="450.908936" cy="189.579361" fx="450.908936" fy="189.579361" r="21.166656" gradientTransform="matrix(0.0000000870852,-0.0390662,-0.0703192,-0.0000000507693,27.057606,31.797666)">
<stop offset="0" style="stop-color:rgb(0%,0%,0%);stop-opacity:0.313725;"/>
<stop offset="0.222222" style="stop-color:rgb(0%,0%,0%);stop-opacity:0.27451;"/>
<stop offset="1" style="stop-color:rgb(0%,0%,0%);stop-opacity:0;"/>
</radialGradient>
<radialGradient id="radial1" gradientUnits="userSpaceOnUse" cx="450.908936" cy="189.579361" fx="450.908936" fy="189.579361" r="21.166656" gradientTransform="matrix(-0.0000000870852,0.0390662,0.0703192,0.0000000507693,-11.181089,-3.763739)">
<stop offset="0" style="stop-color:rgb(0%,0%,0%);stop-opacity:0.313725;"/>
<stop offset="0.222222" style="stop-color:rgb(0%,0%,0%);stop-opacity:0.27451;"/>
<stop offset="1" style="stop-color:rgb(0%,0%,0%);stop-opacity:0;"/>
</radialGradient>
<radialGradient id="radial2" gradientUnits="userSpaceOnUse" cx="450.908936" cy="189.579361" fx="450.908936" fy="189.579361" r="21.166656" gradientTransform="matrix(-0.0000000870852,-0.0390662,0.0703192,-0.0000000507693,-11.181089,31.797666)">
<stop offset="0" style="stop-color:rgb(0%,0%,0%);stop-opacity:0.313725;"/>
<stop offset="0.222222" style="stop-color:rgb(0%,0%,0%);stop-opacity:0.27451;"/>
<stop offset="1" style="stop-color:rgb(0%,0%,0%);stop-opacity:0;"/>
</radialGradient>
<radialGradient id="radial3" gradientUnits="userSpaceOnUse" cx="450.908936" cy="189.579361" fx="450.908936" fy="189.579361" r="21.166656" gradientTransform="matrix(0.0000000870852,0.0390662,-0.0703192,0.0000000507693,27.057605,-3.76374)">
<stop offset="0" style="stop-color:rgb(0%,0%,0%);stop-opacity:0.313725;"/>
<stop offset="0.222222" style="stop-color:rgb(0%,0%,0%);stop-opacity:0.27451;"/>
<stop offset="1" style="stop-color:rgb(0%,0%,0%);stop-opacity:0;"/>
</radialGradient>
<linearGradient id="linear1" gradientUnits="userSpaceOnUse" x1="359.833344" y1="-147.5" x2="359.833344" y2="-62.833332" gradientTransform="matrix(0.031253,0,0,0.031253,0,6.719392)">
<stop offset="0" style="stop-color:rgb(39.215686%,70.980392%,96.470588%);stop-opacity:1;"/>
<stop offset="1" style="stop-color:rgb(73.333333%,87.058824%,98.431373%);stop-opacity:1;"/>
</linearGradient>
<linearGradient id="linear2" gradientUnits="userSpaceOnUse" x1="254" y1="-105.166656" x2="254" y2="95.916672" gradientTransform="matrix(0.031253,0,0,0.031253,0,6.719391)">
<stop offset="0" style="stop-color:rgb(39.215686%,70.980392%,96.470588%);stop-opacity:1;"/>
<stop offset="1" style="stop-color:rgb(98.823529%,89.411765%,92.54902%);stop-opacity:1;"/>
</linearGradient>
<linearGradient id="linear3" gradientUnits="userSpaceOnUse" x1="880" y1="1695.118164" x2="880" y2="1095.118164" gradientTransform="matrix(0.00826902,0,0,0.00826902,0,0)">
<stop offset="0" style="stop-color:rgb(14.901961%,19.607843%,21.960784%);stop-opacity:1;"/>
<stop offset="0.666667" style="stop-color:rgb(27.058824%,35.294118%,39.215686%);stop-opacity:1;"/>
<stop offset="1" style="stop-color:rgb(38.039216%,38.039216%,38.039216%);stop-opacity:1;"/>
</linearGradient>
<linearGradient id="linear4" gradientUnits="userSpaceOnUse" x1="960" y1="1335.118164" x2="960" y2="855.118103" gradientTransform="matrix(0.264583,0,0,0.264583,-0.004128,-192.859268)">
<stop offset="0" style="stop-color:rgb(69.019608%,74.509804%,77.254902%);stop-opacity:1;"/>
<stop offset="0.375" style="stop-color:rgb(77.254902%,79.215686%,91.372549%);stop-opacity:1;"/>
<stop offset="1" style="stop-color:rgb(32.941176%,43.137255%,47.843137%);stop-opacity:1;"/>
</linearGradient>
</defs>
<g id="surface1">
<path style=" stroke:none;fill-rule:nonzero;fill:url(#linear0);" d="M 1.984375 14.015625 L 13.890625 14.015625 L 13.890625 14.679688 L 1.984375 14.679688 Z M 1.984375 14.015625 "/>
<path style=" stroke:none;fill-rule:nonzero;fill:url(#radial0);" d="M 13.890625 14.015625 L 15.214844 14.015625 L 15.214844 13.355469 L 13.890625 13.355469 Z M 13.890625 14.015625 "/>
<path style=" stroke:none;fill-rule:nonzero;fill:url(#radial1);" d="M 1.984375 14.015625 L 0.660156 14.015625 L 0.660156 14.679688 L 1.984375 14.679688 Z M 1.984375 14.015625 "/>
<path style=" stroke:none;fill-rule:nonzero;fill:url(#radial2);" d="M 1.984375 14.015625 L 0.660156 14.015625 L 0.660156 13.355469 L 1.984375 13.355469 Z M 1.984375 14.015625 "/>
<path style=" stroke:none;fill-rule:nonzero;fill:url(#radial3);" d="M 13.890625 14.015625 L 15.214844 14.015625 L 15.214844 14.679688 L 13.890625 14.679688 Z M 13.890625 14.015625 "/>
<path style=" stroke:none;fill-rule:nonzero;fill:url(#linear1);" d="M 3.636719 2.109375 L 14.386719 2.109375 C 14.753906 2.109375 15.050781 2.40625 15.050781 2.769531 L 15.050781 5.25 C 15.050781 5.617188 14.753906 5.914062 14.386719 5.914062 L 3.636719 5.914062 C 3.273438 5.914062 2.976562 5.617188 2.976562 5.25 L 2.976562 2.769531 C 2.976562 2.40625 3.273438 2.109375 3.636719 2.109375 Z M 3.636719 2.109375 "/>
<path style=" stroke:none;fill-rule:nonzero;fill:rgb(90.196079%,90.196079%,90.196079%);fill-opacity:0.588235;" d="M 3.636719 2.109375 C 3.273438 2.109375 2.976562 2.40625 2.976562 2.769531 L 2.976562 2.855469 C 2.976562 2.488281 3.273438 2.191406 3.636719 2.191406 L 14.386719 2.191406 C 14.753906 2.191406 15.050781 2.488281 15.050781 2.855469 L 15.050781 2.769531 C 15.050781 2.40625 14.753906 2.109375 14.386719 2.109375 Z M 3.636719 2.109375 "/>
<path style=" stroke:none;fill-rule:nonzero;fill:rgb(12.941177%,12.941177%,12.941177%);fill-opacity:1;" d="M 3.636719 2.0625 C 3.246094 2.0625 2.929688 2.378906 2.929688 2.769531 L 2.929688 5.25 C 2.929688 5.644531 3.246094 5.960938 3.636719 5.960938 L 14.386719 5.960938 C 14.78125 5.960938 15.097656 5.644531 15.097656 5.25 L 15.097656 2.769531 C 15.097656 2.378906 14.78125 2.0625 14.386719 2.0625 Z M 3.636719 2.15625 L 14.386719 2.15625 C 14.730469 2.15625 15.003906 2.429688 15.003906 2.769531 L 15.003906 5.25 C 15.003906 5.59375 14.730469 5.867188 14.386719 5.867188 L 3.636719 5.867188 C 3.296875 5.867188 3.023438 5.59375 3.023438 5.25 L 3.023438 2.769531 C 3.023438 2.429688 3.296875 2.15625 3.636719 2.15625 Z M 3.636719 2.15625 "/>
<path style=" stroke:none;fill-rule:nonzero;fill:url(#linear2);" d="M 1.324219 3.433594 C 0.957031 3.433594 0.660156 3.726562 0.660156 4.09375 L 0.660156 13.355469 C 0.660156 13.722656 0.957031 14.015625 1.324219 14.015625 L 14.554688 14.015625 C 14.921875 14.015625 15.214844 13.722656 15.214844 13.355469 L 15.214844 5.085938 L 6.285156 5.085938 C 5.917969 5.085938 5.621094 4.792969 5.621094 4.425781 L 5.621094 3.433594 Z M 1.324219 3.433594 "/>
<path style=" stroke:none;fill-rule:nonzero;fill:url(#linear3);" d="M 0.660156 9.054688 L 0.660156 13.355469 C 0.660156 13.722656 0.957031 14.015625 1.324219 14.015625 L 14.554688 14.015625 C 14.921875 14.015625 15.214844 13.722656 15.214844 13.355469 L 15.214844 9.054688 C 14.65625 9.109375 14.554688 9.386719 13.394531 9.054688 C 13.105469 8.929688 12.363281 8.972656 11.578125 9.054688 C 10.914062 9.054688 10.253906 8.726562 9.757812 9.054688 C 9.59375 9.136719 9.277344 9.164062 8.871094 9.164062 C 7.773438 9.386719 6.78125 9.386719 5.796875 9.007812 C 5.292969 8.890625 4.738281 9 4.300781 9.054688 C 3.140625 9.222656 2.976562 9.386719 2.480469 9.054688 C 1.984375 8.890625 1.488281 9.222656 0.660156 9.054688 Z M 0.660156 9.054688 "/>
<path style=" stroke:none;fill-rule:nonzero;fill:rgb(0%,0%,0%);fill-opacity:0.196078;" d="M 1.324219 14.015625 C 0.957031 14.015625 0.660156 13.722656 0.660156 13.355469 L 0.660156 13.273438 C 0.660156 13.640625 0.957031 13.933594 1.324219 13.933594 L 14.554688 13.933594 C 14.921875 13.933594 15.214844 13.640625 15.214844 13.273438 L 15.214844 13.355469 C 15.214844 13.722656 14.921875 14.015625 14.554688 14.015625 Z M 1.324219 14.015625 "/>
<path style=" stroke:none;fill-rule:nonzero;fill:rgb(90.196079%,90.196079%,90.196079%);fill-opacity:0.937255;" d="M 1.324219 3.433594 C 0.957031 3.433594 0.660156 3.726562 0.660156 4.09375 L 0.660156 4.175781 C 0.660156 3.808594 0.957031 3.515625 1.324219 3.515625 L 5.621094 3.515625 L 5.621094 3.433594 Z M 1.324219 3.433594 "/>
<path style=" stroke:none;fill-rule:nonzero;fill:rgb(90.196079%,90.196079%,90.196079%);fill-opacity:0.937255;" d="M 6.242188 5.128906 C 5.875 5.128906 5.582031 4.832031 5.582031 4.464844 L 5.582031 4.382812 C 5.582031 4.75 5.875 5.046875 6.242188 5.046875 L 15.214844 5.046875 L 15.214844 5.128906 Z M 6.242188 5.128906 "/>
<path style=" stroke:none;fill-rule:nonzero;fill:rgb(12.941177%,12.941177%,12.941177%);fill-opacity:1;" d="M 1.324219 3.386719 C 0.929688 3.386719 0.613281 3.703125 0.613281 4.09375 L 0.613281 13.355469 C 0.613281 13.746094 0.929688 14.0625 1.324219 14.0625 L 14.554688 14.0625 C 14.945312 14.0625 15.261719 13.746094 15.261719 13.355469 L 15.261719 4.992188 L 6.285156 4.992188 C 5.941406 4.992188 5.667969 4.71875 5.667969 4.378906 L 5.667969 3.386719 Z M 1.324219 3.480469 L 5.574219 3.480469 L 5.574219 4.378906 C 5.574219 4.769531 5.894531 5.085938 6.285156 5.085938 L 15.167969 5.085938 L 15.167969 13.355469 C 15.167969 13.695312 14.894531 13.96875 14.554688 13.96875 L 1.324219 13.96875 C 0.980469 13.96875 0.707031 13.695312 0.707031 13.355469 L 0.707031 4.09375 C 0.707031 3.753906 0.980469 3.480469 1.324219 3.480469 Z M 1.324219 3.480469 "/>
<path style="fill-rule:nonzero;fill:url(#linear4);stroke-width:3;stroke-linecap:square;stroke-linejoin:round;stroke:rgb(12.941177%,12.941177%,12.941177%);stroke-opacity:1;stroke-miterlimit:4;" d="M 253.975747 -8.644706 C 252.850854 -8.644706 251.725961 -8.269742 250.851045 -7.644801 C 246.101498 -3.770171 242.851809 -0.770458 240.602024 2.229256 C 238.477227 5.228969 237.102358 8.728635 237.977274 12.103313 C 238.852191 15.47799 241.351952 17.477799 243.476749 18.72768 C 245.726534 19.977561 247.976319 20.852477 250.101117 21.852382 C 254.225723 23.602215 256.97546 25.352048 257.475412 26.726916 C 257.725388 27.351857 257.850377 28.351761 256.97546 30.601546 C 255.975556 32.976319 253.975747 36.350997 250.226105 40.725579 C 249.476176 41.600496 248.976224 42.725388 248.976224 43.975269 L 227.478277 43.975269 C 220.85391 37.47589 211.729781 33.351284 201.605748 33.351284 C 181.107705 33.351284 164.484293 49.849708 164.484293 70.472739 C 164.484293 80.596772 168.608899 89.720901 175.108278 96.470256 C 175.108278 96.595244 175.108278 96.720232 175.108278 96.84522 L 175.108278 139.216174 C 175.108278 150.965052 183.857442 160.339157 194.606416 160.339157 L 197.981094 160.339157 C 208.730067 160.339157 217.479232 150.965052 217.479232 139.216174 L 217.479232 103.96954 C 221.228874 102.094719 224.603551 99.719946 227.478277 96.84522 L 280.473216 96.84522 C 283.47293 99.844934 287.097584 102.344695 291.097202 104.094528 L 291.097202 139.216174 C 291.097202 150.965052 299.721378 160.339157 310.59534 160.339157 L 313.845029 160.339157 C 324.718991 160.339157 333.343167 150.965052 333.343167 139.216174 L 333.343167 96.84522 C 333.343167 96.595244 333.343167 96.22028 333.343167 95.970304 C 339.592571 89.345936 343.467201 80.346796 343.467201 70.472739 C 343.467201 49.849708 326.968776 33.351284 306.470734 33.351284 C 296.3467 33.351284 287.097584 37.47589 280.473216 43.975269 L 260.475126 43.975269 C 263.224863 40.475603 265.099684 37.350902 266.224577 34.351188 C 267.724434 30.476558 268.099398 26.601928 266.849517 23.352238 C 264.599732 16.727871 258.350329 14.478086 253.975747 12.603265 C 251.725961 11.60336 249.85114 10.853432 248.60126 10.103504 C 248.226296 9.853528 247.976319 9.728539 247.851331 9.603551 C 247.976319 9.353575 248.101308 8.978611 248.726248 8.228683 C 249.976128 6.47885 252.600878 3.729112 257.100448 0.229447 C 258.850281 -1.020434 259.475221 -3.270219 258.725293 -5.270028 C 258.100353 -7.394825 256.100544 -8.769694 253.975747 -8.644706 Z M 253.975747 -8.644706 " transform="matrix(0.031253,0,0,0.031253,0,6.719392)"/>
<path style=" stroke:none;fill-rule:nonzero;fill:rgb(25.882354%,25.882354%,25.882354%);fill-opacity:0.313725;" d="M 10.292969 8.910156 C 10.101562 8.910156 9.921875 8.945312 9.757812 9.054688 C 9.59375 9.136719 9.277344 9.164062 8.871094 9.164062 C 7.773438 9.386719 6.78125 9.386719 5.796875 9.007812 C 5.582031 8.957031 5.359375 8.949219 5.144531 8.960938 C 5.152344 9.261719 5.277344 9.53125 5.472656 9.734375 C 5.472656 9.738281 5.472656 9.742188 5.472656 9.746094 L 5.472656 11.070312 C 5.472656 11.4375 5.746094 11.730469 6.082031 11.730469 L 6.1875 11.730469 C 6.523438 11.730469 6.796875 11.4375 6.796875 11.070312 L 6.796875 9.96875 C 6.914062 9.910156 7.019531 9.835938 7.109375 9.746094 L 8.765625 9.746094 C 8.859375 9.839844 8.972656 9.917969 9.097656 9.972656 L 9.097656 11.070312 C 9.097656 11.4375 9.367188 11.730469 9.707031 11.730469 L 9.808594 11.730469 C 10.148438 11.730469 10.417969 11.4375 10.417969 11.070312 L 10.417969 9.746094 C 10.417969 9.738281 10.417969 9.726562 10.417969 9.71875 C 10.609375 9.515625 10.726562 9.246094 10.734375 8.949219 C 10.582031 8.925781 10.433594 8.90625 10.292969 8.910156 Z M 10.292969 8.910156 "/>
</g>
</svg>

<svg xmlns="http://www.w3.org/2000/svg" width="16pt" height="16pt" viewBox="0 0 16 16"><defs><linearGradient id="a" gradientUnits="userSpaceOnUse" x1="254" y1="233.5" x2="254" y2="254.667" gradientTransform="matrix(.03125 0 0 .03125 0 6.72)"><stop offset="0" stop-opacity=".275"/><stop offset="1" stop-opacity="0"/></linearGradient><radialGradient id="b" gradientUnits="userSpaceOnUse" cx="450.909" cy="189.579" fx="450.909" fy="189.579" r="21.167" gradientTransform="matrix(0 -.03907 -.07032 0 27.058 31.798)"><stop offset="0" stop-opacity=".314"/><stop offset=".222" stop-opacity=".275"/><stop offset="1" stop-opacity="0"/></radialGradient><radialGradient id="c" gradientUnits="userSpaceOnUse" cx="450.909" cy="189.579" fx="450.909" fy="189.579" r="21.167" gradientTransform="matrix(0 .03907 .07032 0 -11.181 -3.764)"><stop offset="0" stop-opacity=".314"/><stop offset=".222" stop-opacity=".275"/><stop offset="1" stop-opacity="0"/></radialGradient><radialGradient id="d" gradientUnits="userSpaceOnUse" cx="450.909" cy="189.579" fx="450.909" fy="189.579" r="21.167" gradientTransform="matrix(0 -.03907 .07032 0 -11.181 31.798)"><stop offset="0" stop-opacity=".314"/><stop offset=".222" stop-opacity=".275"/><stop offset="1" stop-opacity="0"/></radialGradient><radialGradient id="e" gradientUnits="userSpaceOnUse" cx="450.909" cy="189.579" fx="450.909" fy="189.579" r="21.167" gradientTransform="matrix(0 .03907 -.07032 0 27.058 -3.764)"><stop offset="0" stop-opacity=".314"/><stop offset=".222" stop-opacity=".275"/><stop offset="1" stop-opacity="0"/></radialGradient><linearGradient id="f" gradientUnits="userSpaceOnUse" x1="359.833" y1="-147.5" x2="359.833" y2="-62.833" gradientTransform="matrix(.03125 0 0 .03125 0 6.72)"><stop offset="0" stop-color="#64b5f6"/><stop offset="1" stop-color="#bbdefb"/></linearGradient><linearGradient id="g" gradientUnits="userSpaceOnUse" x1="254" y1="-105.167" x2="254" y2="95.917" gradientTransform="matrix(.03125 0 0 .03125 0 6.72)"><stop offset="0" stop-color="#64b5f6"/><stop offset="1" stop-color="#fce4ec"/></linearGradient><linearGradient id="h" gradientUnits="userSpaceOnUse" x1="880" y1="1695.118" x2="880" y2="1095.118" gradientTransform="rotate(.882) scale(.00827)"><stop offset="0" stop-color="#263238"/><stop offset=".667" stop-color="#455a64"/><stop offset="1" stop-color="#616161"/></linearGradient><linearGradient id="i" gradientUnits="userSpaceOnUse" x1="960" y1="1335.118" x2="960" y2="855.118" gradientTransform="matrix(.26458 0 0 .26458 -.004 -192.86)"><stop offset="0" stop-color="#b0bec5"/><stop offset=".375" stop-color="#c5cae9"/><stop offset="1" stop-color="#546e7a"/></linearGradient></defs><path d="M1.984 14.016h11.907v.664H1.984zm0 0" fill="url(#a)"/><path d="M13.89 14.016h1.325v-.66H13.89zm0 0" fill="url(#b)"/><path d="M1.984 14.016H.66v.664h1.324zm0 0" fill="url(#c)"/><path d="M1.984 14.016H.66v-.66h1.324zm0 0" fill="url(#d)"/><path d="M13.89 14.016h1.325v.664H13.89zm0 0" fill="url(#e)"/><path d="M3.637 2.11h10.75c.367 0 .664.296.664.66v2.48a.664.664 0 0 1-.664.664H3.637a.663.663 0 0 1-.66-.664V2.77c0-.364.296-.66.66-.66zm0 0" fill="url(#f)"/><path d="M3.637 2.11a.662.662 0 0 0-.66.66v.085c0-.367.296-.664.66-.664h10.75c.367 0 .664.297.664.664V2.77a.663.663 0 0 0-.664-.66zm0 0" fill="#e6e6e6" fill-opacity=".588"/><path d="M3.637 2.063a.707.707 0 0 0-.707.707v2.48c0 .395.316.71.707.71h10.75c.394 0 .71-.315.71-.71V2.77a.708.708 0 0 0-.71-.708zm0 .093h10.75c.343 0 .617.274.617.614v2.48a.614.614 0 0 1-.617.617H3.637a.613.613 0 0 1-.614-.617V2.77c0-.34.274-.614.614-.614zm0 0" fill="#212121"/><path d="M1.324 3.434a.66.66 0 0 0-.664.66v9.261c0 .368.297.66.664.66h13.23c.368 0 .66-.292.66-.66v-8.27H6.286a.66.66 0 0 1-.664-.66v-.991zm0 0" fill="url(#g)"/><path d="M.66 9.055v4.3c0 .368.297.66.664.66h13.23c.368 0 .66-.292.66-.66v-4.3c-.558.054-.66.332-1.82 0-.289-.125-1.03-.082-1.816 0-.664 0-1.324-.328-1.82 0-.164.082-.48.11-.887.11-1.098.222-2.09.222-3.074-.157C5.293 8.89 4.738 9 4.3 9.055c-1.16.168-1.324.332-1.82 0-.497-.164-.993.168-1.82 0zm0 0" fill="url(#h)"/><path d="M1.324 14.016a.66.66 0 0 1-.664-.66v-.083c0 .368.297.66.664.66h13.23c.368 0 .66-.292.66-.66v.082c0 .368-.292.66-.66.66zm0 0" fill-opacity=".196"/><path d="M1.324 3.434a.66.66 0 0 0-.664.66v.082a.66.66 0 0 1 .664-.66h4.297v-.082zm0 0M6.242 5.129a.66.66 0 0 1-.66-.664v-.082a.66.66 0 0 0 .66.664h8.973v.082zm0 0" fill="#e6e6e6" fill-opacity=".937"/><path d="M1.324 3.387a.708.708 0 0 0-.71.707v9.261c0 .391.316.707.71.707h13.23c.391 0 .708-.316.708-.707V4.992H6.285a.613.613 0 0 1-.617-.613v-.992zm0 .093h4.25v.899c0 .39.32.707.711.707h8.883v8.27c0 .34-.273.613-.613.613H1.325a.613.613 0 0 1-.618-.614V4.094c0-.34.273-.614.617-.614zm0 0" fill="#212121"/><path d="M253.976-8.645a5.47 5.47 0 0 0-3.125 1c-4.75 3.875-8 6.875-10.249 9.874-2.125 3-3.5 6.5-2.625 9.874.875 3.375 3.375 5.375 5.5 6.625 2.25 1.25 4.5 2.124 6.624 3.124 4.125 1.75 6.874 3.5 7.374 4.875.25.625.375 1.625-.5 3.875-1 2.374-3 5.749-6.749 10.124-.75.874-1.25 2-1.25 3.25h-21.498c-6.624-6.5-15.748-10.625-25.872-10.625-20.498 0-37.122 16.499-37.122 37.122 0 10.124 4.125 19.248 10.624 25.997v42.746c0 11.75 8.75 21.123 19.498 21.123h3.375c10.75 0 19.498-9.374 19.498-21.123V103.97c3.75-1.875 7.125-4.25 10-7.125h52.994c3 3 6.625 5.5 10.624 7.25v35.121c0 11.75 8.624 21.123 19.498 21.123h3.25c10.874 0 19.498-9.374 19.498-21.123v-42.37-.876a37.102 37.102 0 0 0 10.124-25.497c0-20.623-16.498-37.122-36.996-37.122-10.124 0-19.373 4.125-25.998 10.624h-19.998c2.75-3.5 4.625-6.624 5.75-9.624 1.5-3.874 1.874-7.75.625-10.999-2.25-6.624-8.5-8.874-12.874-10.749-2.25-1-4.125-1.75-5.375-2.5-.375-.25-.625-.374-.75-.5.125-.25.25-.624.875-1.374 1.25-1.75 3.875-4.5 8.374-8 1.75-1.25 2.375-3.5 1.625-5.499-.625-2.125-2.624-3.5-4.75-3.375zm0 0" transform="matrix(.03125 0 0 .03125 0 6.72)" fill="url(#i)" stroke-width="3" stroke-linecap="square" stroke-linejoin="round" stroke="#212121"/><path d="M10.293 8.91a.93.93 0 0 0-.535.145c-.164.082-.48.11-.887.11-1.098.222-2.09.222-3.074-.157a2.299 2.299 0 0 0-.652-.047c.007.3.132.57.328.773v1.336c0 .367.273.66.609.66h.106c.335 0 .609-.293.609-.66V9.97c.117-.059.223-.133.312-.223h1.657c.093.094.207.172.332.227v1.097c0 .367.27.66.609.66h.102c.34 0 .609-.293.609-.66V9.746 9.72c.191-.203.309-.473.316-.77a2.501 2.501 0 0 0-.441-.039zm0 0" fill="#424242" fill-opacity=".314"/></svg>
